X: 516
T: Cevr-i Peyderpeyle
C: Ahmet Avni Konuk
O: Turkey
F: http://compmusic.upf.edu/node/140
N: yegah--kupe--yuruksemai_ii--cevr-i--ahmet_avni_konuk
N: makam= yegah
N: form= kupe
N: usul= yuruksemai_ii = 6/8
M: 6/8
L: 1/16
K: C _2/4B ^f  
Q: 1/4=120
%%MIDI tuningsystem comma53
=B^cB2 c2d4z2  | e2d2 e2d2 c2B2  | e2d2 dcc2 B2BA  | \
w:  Cevr_ *  *  i  pey  |  der  |  pey *  le  *  şim  | 
A4 d2^3/4c2 d4  | 
w:  di   | 
d4 e2^3/4f4z2  | d2e2 ^3/4f2g2 a2ag  | \
w:  â şık_ ı   |  zâ  | 
^3/4f4 d2e4ed  | d8-d2z2  | g4 a2a4b2  | 
w:  rın  *  *  se  |  si    |  Çık maz  ol  | 
a2g2 ^3/4f2^3/4e2 f4  | e2e2 ^3/4f2g2 a2g2  | \
w:  du   |  â *  kı bet   | 
^3/4f2ef ag=fe d4  | A4 e2d2 c2B2  | 
w:  in  |  di  Ye gâ  | 
A2A2 B2AG ^3/4FED2  | E2E2 G2^3/4F2 FEED  | \
w:  ha   |  per *  *  *  *  *  de  | 
D8-D2z2  | |


